X: 32054
T: Peh Trouz Zou Ar En Doar
R: polka
M: 2/4
K: Eminor
Be ed|e2 g2|fe de|B2 BA|
Be ed|e2 g2|fe de|B2 B2||
e2 dB|cd Bc|BA GA|B2 BA|
Be ed|e2 g2|(3fga gf|e2 e2||

